app/dist/common/images/plains-gp.svg

<svg height="18" width="18" xmlns="http://www.w3.org/2000/svg"><path d="m0 0h18v18h-18z" fill="#f0f3fa"/><path d="m3.005 11.408h2.22v.592h-2.22zm9.769 0h2.22v.592h-2.22z" fill="#d31145"/><path d="m3 9.005h2.226v.205h-2.226z" fill="#a1a3a6"/><path d="m3 9.609h2.226v.205h-2.226z" fill="#d31145"/><path d="m3 10.055h2.226v.205h-2.226z" fill="#002a5c"/><path d="m3 10.562h2.226v.35h-2.226zm9.774-1.562h2.226v.205h-2.226z" fill="#a1a3a6"/><path d="m12.774 9.609h2.226v.205h-2.226z" fill="#d31145"/><path d="m12.774 10.055h2.226v.205h-2.226z" fill="#002a5c"/><path d="m12.774 10.562h2.226v.35h-2.226z" fill="#a1a3a6"/><g fill="#003263"><path d="m5 9h8v3h-8z"/><path d="m8 6h2v4h-2zm.624-.489h.809v.252h-.809z"/><rect height=".252" rx=".126" width="3.525" x="7.266" y="4.755"/><path d="m8 12h2a1 1 0 1 1 -2 0zm1.28-6.492 1.066-.732.142.208-1.065.732zm-.503 0-1.067-.732-.143.208 1.066.732zm.125.255h.252v.251h-.252z"/></g></svg>

<!-- by TradingView --><svg width="18" height="18" xmlns="http://www.w3.org/2000/svg"><path fill="#F0F3FA" d="M0 0h18v18H0z"/><path d="M3.005 11.408h2.22V12h-2.22v-.592zM12.774 11.408h2.22V12h-2.22v-.592z" fill="#D31145"/><path d="M3 9.005h2.226v.205H3v-.205z" fill="#A1A3A6"/><path d="M3 9.609h2.226v.205H3v-.205z" fill="#D31145"/><path d="M3 10.055h2.226v.205H3v-.205z" fill="#002A5C"/><path d="M3 10.562h2.226v.35H3v-.35zM12.774 9H15v.205h-2.226V9z" fill="#A1A3A6"/><path d="M12.774 9.609H15v.205h-2.226v-.205z" fill="#D31145"/><path d="M12.774 10.055H15v.205h-2.226v-.205z" fill="#002A5C"/><path d="M12.774 10.562H15v.35h-2.226v-.35z" fill="#A1A3A6"/><path d="M5 9h8v3H5V9z" fill="#003263"/><path fill="#003263" d="M8 6h2v4H8zM8.624 5.511h.809v.252h-.809z"/><rect x="7.266" y="4.755" width="3.525" height=".252" rx=".126" fill="#003263"/><path d="M8 12h2a1 1 0 11-2 0zM9.28 5.508l1.066-.732.142.208-1.065.732zM8.777 5.508L7.71 4.776l-.143.208 1.066.732zM8.902 5.763h.252v.251h-.252v-.251z" fill="#003263"/></svg>
